elements/app-hax/lib/rpg-character-toast/images/SpeechBubbleR.svg

<svg xmlns="http://www.w3.org/2000/svg" fill="none" width="316" height="142" viewBox="270 0 316 142"><path d="M308 72h-24V24h-6v-6l-6-.07V15h-78v2.835l78 .094V21h9v9h6v39h24v3h-3Zm-18 15h-3v3h-3v26h3V93h3v-3h3v-3h3v-3h3v-3h3v-3h3v-3h3v-3h-6v3h-3v3h-3v3h-3v3h-3v3Zm-6 29h-3v6h3v-6Zm-3 6h-3v3h3v-3Zm-3 3h-6v6h-78v-3h84v-3Z" fill="#000"/></svg>

<svg width="316" height="142" viewBox="270 0 316 142" fill="none" xmlns="http://www.w3.org/2000/svg">
<path d="M308 72H284V30V24H278V21V18L272 17.9294V15H194V17.8353L272 17.9294V21H281V24V30H287V69H311V72H308Z" fill="black"/>
<path d="M290 87H287V90H284V116H287V93H290V90H293V87H296V84H299V81H302V78H305V75H308V72H302V75H299V78H296V81H293V84H290V87Z" fill="black"/>
<path d="M284 116H281V122H284V116Z" fill="black"/>
<path d="M281 122H278V125H281V122Z" fill="black"/>
<path d="M278 125H272V131H194V128H272H278V125Z" fill="black"/>
</svg>
